!!!COM: Music21
!!!OTL: Foliada de San Benito de Angoares
!!!OMV: pezas_foliadas_foliada-de-san-benito-de-angoares_foliada-de-san-benito-de-angoares-partitura.musicxml
**kern
*part2
*staff2
*I"Bagpipes
*I'Bag
*clefG^2
*k[]
*M3/4
=1
!
*MM200
!
4r
8ccL
8ddJ
8ccL
8ddJ
=||
4ee
8ffL
8ddJ
4ee
=
4cc
8ffL
8ggJ
8eeL
8ffJ
=
4gg
8ffL
8eeJ
[4dd
=
4dd]
8bL
8ccJ
8bL
8ccJ
=
4dd
8eeL
8ccJ
4dd
=
4b
8eeL
8ffJ
8ddL
8eeJ
!!linebreak:original
=
4ff
8eeL
8ddJ
[4cc
!!linebreak:original
=
4cc]
8ccL
8ddJ
8ccL
8ddJ
=
8eeL
8ccJ
8ffL
8ddJ
4ee
=
4cc
8ffL
8ggJ
8eeL
8ffJ
=
12ggL
12aa
12ggJ
8ffL
8eeJ
[4dd
=
4dd]
8bL
8ccJ
8bL
8ccJ
=
8ddL
8bJ
8eeL
8ccJ
4dd
=
4b
8eeL
8ffJ
8ddL
8eeJ
!!linebreak:original
=
12ffL
12gg
12ffJ
8eeL
8ddJ
[4cc
=
2.cc]
=||
*k[b-e-a-]
*E-:
4bn
8ddL
8ccJ
[4b
=
4b]
4.ee-
8ee-
=
4dd
8ccL
8bnJ
[4cc
=
2.cc]
=||
4cc
8ccL
8ddJ
[4ee-
=
4ee-]
4.dd
8ee-
!!pagebreak:original
=
4ff
8ffL
8ee-J
4dd
!!pagebreak:original
=
8ddL
8ccJ
4bn
4r
=
4bn
8ddL
8ccJ
[4b
=
4b]
4.ee-
8ee-
=
4dd
8ccL
8bnJ
[4cc
=
2cc]
4r
=||
4cc
8ccL
8ddJ
[4ee-
=
4ee-]
4.dd
8ee-
=
4ff
8ffL
8ee-J
4dd
!!pagebreak:original
=
8ddL
8ccJ
4bn
4r
=
4bn
8ddL
8ccJ
[4b
=
4b]
4.ee-
8ee-
=
4dd
8ccL
8bnJ
[4cc
=
2cc]
4r
=||
4cc
8ccL
8ddJ
[4ee-
=
4ee-]
4.dd
8ee-
=
4ff
8ffL
8ee-J
4dd
!!linebreak:original
=
8ddL
8ccJ
4bn
4r
=
4bn
8ddL
8ccJ
[4b
=||
*k[]
*C:
4b]
4.ee
8ee
=
4dd
8ccL
8bJ
[4cc
=||
4cc]
4cc
.
8ccL
8ddJ
=||
4ee
.
8ffL
8ddJ
4ee
.
!!linebreak:original
=
4cc
.
4ff
.
8eeL
8ffJ
!!linebreak:original
=
4gg
.
8ffL
8eeJ
[4dd
=
4dd]
4b
.
8bL
8ccJ
=
4dd
.
8eeL
8ccJ
4dd
=
4b
.
4ee
.
8ddL
8eeJ
=
4ff
.
8eeL
8ddJ
[4cc
=
4cc]
4cc
.
8ccL
8ddJ
!!pagebreak:original
=||
4ee
.
8ffL
8ddJ
4ee
.
=
4cc
.
4ff
.
8eeL
8ffJ
!!linebreak:original
=
4gg
.
8ffL
8eeJ
[4dd
=
4dd]
4b
.
8bL
8ccJ
=
4dd
.
8eeL
8ccJ
4dd
=
4b
.
4ee
.
8ddL
8eeJ
=
4ff
.
8eeL
8ddJ
[4cc
!!linebreak:original
=
4cc]
8ccL
8ddJ
8ccL
8ddJ
=||
4ff
.
8eeL
8ddJ
[4cc
=
8cc]
8r
2r
==
*-
!!!system-decoration: s1,s2,s3
